packages/tokens/icons/noContent/size24Px.svg

<svg viewBox="0 0 24 24" fill="none" xmlns="http://www.w3.org/2000/svg" width="1em" height="1em"><path d="M17.875 7.53846C18.1511 7.53846 18.375 7.3146 18.375 7.03846C18.375 6.76232 18.1511 6.53846 17.875 6.53846V7.53846ZM16.5 20H7.5V21H16.5V20ZM6 18.5L6 5.5H5L5 18.5H6ZM7.5 4L13.7485 4V3L7.5 3V4ZM18 7.90754V18.5H19V7.90754H18ZM14 3.90385V6.03846H15V3.90385H14ZM15.5 7.53846H17.875V6.53846L15.5 6.53846V7.53846ZM14.7363 4.37113L17.4878 6.77867L18.1463 6.0261L15.3948 3.61856L14.7363 4.37113ZM14 6.03846C14 6.86689 14.6716 7.53846 15.5 7.53846V6.53846C15.2239 6.53846 15 6.3146 15 6.03846H14ZM19 7.90754C19 7.18663 18.6888 6.50082 18.1463 6.0261L17.4878 6.77867C17.8133 7.0635 18 7.47499 18 7.90754H19ZM13.7485 4C14.1119 4 14.4628 4.13188 14.7363 4.37113L15.3948 3.61856C14.9391 3.2198 14.3541 3 13.7485 3V4ZM7.5 20C6.67157 20 6 19.3284 6 18.5H5C5 19.8807 6.11929 21 7.5 21V20ZM16.5 21C17.8807 21 19 19.8807 19 18.5H18C18 19.3284 17.3284 20 16.5 20V21ZM6 5.5C6 4.67157 6.67157 4 7.5 4V3C6.11929 3 5 4.11929 5 5.5H6Z" fill="currentColor"/><path d="M20.5 3.5L3.5 20.5" stroke="currentColor" stroke-linecap="round"/></svg>

<svg xmlns="http://www.w3.org/2000/svg" fill="none" viewBox="0 0 24 24" width="1em" height="1em"><path fill="currentColor" d="M17.875 7.538a.5.5 0 0 0 0-1v1ZM16.5 20h-9v1h9v-1ZM6 18.5v-13H5v13h1ZM7.5 4h6.248V3H7.5v1ZM18 7.908V18.5h1V7.908h-1Zm-4-4.004v2.134h1V3.904h-1Zm1.5 3.634h2.375v-1H15.5v1Zm-.764-3.167 2.752 2.408.658-.753-2.751-2.407-.659.752ZM14 6.038a1.5 1.5 0 0 0 1.5 1.5v-1a.5.5 0 0 1-.5-.5h-1Zm5 1.87a2.5 2.5 0 0 0-.854-1.882l-.658.753A1.5 1.5 0 0 1 18 7.908h1ZM13.748 4a1.5 1.5 0 0 1 .988.371l.659-.752A2.5 2.5 0 0 0 13.749 3v1ZM7.5 20A1.5 1.5 0 0 1 6 18.5H5A2.5 2.5 0 0 0 7.5 21v-1Zm9 1a2.5 2.5 0 0 0 2.5-2.5h-1a1.5 1.5 0 0 1-1.5 1.5v1ZM6 5.5A1.5 1.5 0 0 1 7.5 4V3A2.5 2.5 0 0 0 5 5.5h1Z"/><path stroke="currentColor" stroke-linecap="round" d="m20.5 3.5-17 17"/></svg>
